X:1
T:The Friar in the Well
M:6/8
L:1/8
K:G
 D| G3/2 A/2 G GGB| dde d3| G3/2 G/2 G GBd| A3- A2 D| G3/2 A/2 G GGB|\
 dde d3| B3/2 B/2 B ABA| G3- G2 A| BBB ddd| BBB d2 c| BBB B2 A| G2 G DEF|\
 G2 A G2 E| E D2- D2 D| G3/2 G/2 G A3/2 B/2 c| B2 A G2||
